assets/icons/qvision/mobile_screen_share.svg

<svg width="24" height="24" viewBox="0 0 24 24" fill="none" xmlns="http://www.w3.org/2000/svg">
<g clip-path="url(#clip0_147_1894)">
<path d="M17 1.01L7.00001 1C5.90001 1 5.01001 1.9 5.01001 3V21C5.01001 22.1 5.90001 23 7.00001 23H17C18.1 23 19 22.1 19 21V3C19 1.9 18.1 1.01 17 1.01ZM17 19H7.00001V5H17V19ZM12.8 13.22V14.97L16 11.98L12.8 9V10.7C9.69001 11.13 8.45001 13.26 8.00001 15.4C9.11001 13.9 10.58 13.22 12.8 13.22Z" fill="#323232"/>
</g>
<defs>
<clipPath id="clip0_147_1894">
<rect width="24" height="24" fill="white"/>
</clipPath>
</defs>
</svg>

<svg xmlns="http://www.w3.org/2000/svg" height="24" viewBox="0 0 24 24" width="24"><path d="M0 0h24v24H0V0z" fill="none"/><path d="M17 1.01L7 1c-1.1 0-1.99.9-1.99 2v18c0 1.1.89 2 1.99 2h10c1.1 0 2-.9 2-2V3c0-1.1-.9-1.99-2-1.99zM17 19H7V5h10v14zm-4.2-5.78v1.75l3.2-2.99L12.8 9v1.7c-3.11.43-4.35 2.56-4.8 4.7 1.11-1.5 2.58-2.18 4.8-2.18z"/></svg>
